X: 1
T: Miss Dale
R: strathspey
O: Trad
B: GoldRing
Z: John Chambers <jc:trillian.mit.edu>
M: 4/4
L: 1/16
K: A
a2 \
| "A"ec3 c3B "D"AF3- F3A | "A7"E3F A3c "D"d4 d3f \
| "A"ec3 c3B "F#m"AF3 F3c | "Bm"df3 "(A)"e3c "E7"B6 ||
f2 \
| "A"ec3 c3B "D"AF3- F3A | "A7"E3F A3c "D"d4 d3f \
| "D"(3f2g2a2 "A"(3e2d2c2 "Bm"(3d2e2f2 "A"(3e2d2c2 | "D"a3f fedc "E7"B6 |]
f2 \
| "A"e3c a3c e3c a3c | "(D)"fedc "A"a2c2 "E7"e6 f2 \
| "A"e3c a3c "F#m"e3c a3c | "D"(3f2g2a2 "A"(3e2d2c2 "Bm"B4 "E7"Bf3 ||
| "A"e3c a3c "(D)"fedc "A"a3c | "A"e3c a3e "D"f6 g2 \
| "D"(3a2g2f2 "A"(3e2d2c2 "Bm"(3d2e2f2 "E"(3e2f2g2 \
| "D"(3a2g2f2 "A"(3e2d2c2 [1 "E7"(3B2b2g2 (3a2g2f2 :|[2 "E7"B4 "A"A4 |]
